icons/pyup.svg

<?xml version="1.0" encoding="UTF-8" standalone="no"?>
<svg width="256px" height="296px" viewBox="0 0 256 296" version="1.1" xmlns="http://www.w3.org/2000/svg" xmlns:xlink="http://www.w3.org/1999/xlink" preserveAspectRatio="xMidYMid">
	<g>
		<path d="M91.2648,126.1592 L91.2648,126.1672 L91.5958,126.4712 L128.2278,147.7372 L165.0098,126.0972 L165.2478,125.8292 L165.2478,125.8242 L128.0528,105.2192 L91.2648,126.1592 Z M204.7527,102.9022 L205.2557,102.8882 L255.6697,73.6302 L255.9997,73.1612 L204.7527,43.8332 L204.7527,102.9022 Z M128.1573,-0.0002 L0.0003,74.0378 L0.4253,74.7818 L51.1353,103.7468 L51.8153,103.6338 L128.2583,59.8428 L165.2243,81.9368 L165.2243,21.2118 L128.1573,-0.0002 Z" fill="#4F859A"></path>
		<path d="M0,220.7347 L51.81,251.1237 L51.81,103.6367 L51.815,103.6337 L0,74.0387 L0,220.7347 Z M91.6488,274.4908 L128.2568,295.9628 L128.7428,294.7528 L128.7428,235.3978 L128.2568,234.3358 L91.6488,215.2418 L91.6488,274.4908 Z M91.2648,126.167 L91.2648,169.049 L128.2408,190.116 L128.2568,190.107 L128.4048,189.769 L128.3938,147.536 L128.2568,147.296 L91.2648,126.167 Z" fill="#2E6371"></path>
		<path d="M204.7527,102.9022 L204.7527,191.9102 L128.2577,234.3352 L128.2577,295.9632 L255.9997,220.7342 L255.9997,73.1612 L204.7527,102.9022 Z M165.2475,125.8287 L128.2565,147.2957 L128.2565,190.1067 L165.2475,168.9377 L165.2475,125.8287 Z" fill="#1BAFCE"></path>
	</g>
</svg>

<svg xmlns="http://www.w3.org/2000/svg" viewBox="0 0 256 295.963">
  <path fill="#4f859a" d="M91.265 126.16v.007l.33.304 36.633 21.266 36.782-21.64.238-.268v-.005l-37.195-20.605zm113.488-23.258.503-.014L255.67 73.63l.33-.469-51.247-29.328zM128.157 0 0 74.038l.425.744 50.71 28.965.68-.113 76.443-43.791 36.966 22.094V21.212z"/>
  <path fill="#2e6371" d="m0 220.735 51.81 30.389V103.637l.005-.003L0 74.039zm91.649 53.756 36.608 21.472.486-1.21v-59.355l-.486-1.062-36.608-19.094zm-.384-148.324v42.882l36.976 21.067.016-.009.148-.338-.011-42.233-.137-.24z"/>
  <path fill="#1bafce" d="M204.753 102.902v89.008l-76.495 42.425v61.628L256 220.734V73.161zm-39.505 22.927-36.991 21.467v42.81l36.99-21.168z"/>
</svg>
